X: 10531
T: Doonagore, The
R: reel
M: 4/4
K: Gmajor
DG G/F/G A2 fe|fdcd fdcA|GGFG Adde|fdcA GBAF|
DG G/F/G A2 fe|fdcd fdcA|GGFG Adde|fdcA BG G3 z||
g2 ge fdfe|fdgd fdfd|Ggge fdfe|fdcA BG G2|
gbge fdfe|fdgd fdfd|defg a3 g|fdcA GBAF||

